X:0123
T:Fy let us a' to the Bridal.
N:same tune found as early as 1705; text is late 17th century
M:9/8
L:1/8
Q:3/8=120
I: :: ::
Z:Jack Campin * www.campin.me.uk * 2009
K:G
D|GAG Gge dBG|ABA ABd Te2g|GAG gfe dBG|ABc BAG E2:|
d|gdg gag fed|edB gab  a2b|gab abg fed|efg dBG A2:|
<end>
<start>
